X:1
T:For Children, Book 2,
T:Le Vézinet
T:Jean-Philippe Rameau (1683-1764) 
T:Pièces de Clavecin en concerts (1741) 
T:Premier Concert RCT 7
T:Version pour clavier seul par Pierre Gouin 
T:Oli 2020
C:Bartók, Béla
Z:Oli 2020
%%score { ( 1 4 ) | ( 2 3 ) }
L:1/8
Q:1/4=170
M:2/2
K:C
V:1 treble nm="Piano"
V:4 treble 
V:2 bass 
V:3 bass 
V:1
"^Gaiement, sans vitesse" z8 |: CDEF GABc | C2 z2 z4 | CDEF GABc | C2 z2 z2 c2 | dcBA Gdef | %6
 edPcB c2 ge | afcf c'4 | c'4 aaPgf | gece c'4 | c'4 ggPfe | fdBd fdBd | [gb]4 ffPed | ecGc ee^fg | %14
 ^fdAd ffMga | geBe ggab | a^fdf aabc' | Tb4- (b3 a/b/) | (c'a)(bg) (a^f)(ge) | %19
 M^f3 (3g/f/g/ (Tg3 f/g/) | ag^fe dcPBA | B"^d." [Bd] x [Bd] [Bd] x [Bd] x | %22
 [^FA] x [Ac] x [FA] x [DF] x | [GB] x [Bd] x [Bd] x [Bd] x | [^FA] x [Ac] x [FA] x [DF] x | %25
 [GB] x [Bd] x (T[Bd]3 c/d/) | (ec)(dB) (cA)(BG) | (^FD)(EC) (DB,)(CA,) | (B,D G2-) G2 z2 | %29
{^F} [B,DG]8 :| %30
V:2
 C,D,E,F, G,A,B,C |: C,2 z2 z4 | A,,B,,C,D, E,F,G,A, | A,,2 z2 z4 | E,,F,,G,,A,, B,,C,D,E, | %5
w: |||||
 F,,4 G,,4 | C,,4 z2 C2 | F2 F,2[I:staff -1] afcf | afcf[I:staff +1] F2 F,2 | %9
w: ||* * g. * * *||
 E2 E,2[I:staff -1] gece | gece[I:staff +1] E2 E,2 | D2 D,2[I:staff -1] [gb]4 | %12
w: |||
 fdBd[I:staff +1] F2 G,2 | C2 C,2 C2 A,2 | D2 D,2 D2 ^F2 | E2 E,2[K:treble] E2 G2 | ^F2 A2 F2 D2 | %17
w: |||||
 G2 G,2 G2 ^F2 | G4 [CA]2 [B,B]2 |[K:bass] A,4 [G,D]4 | D8- | %21
w: ||||
 [G,D]2"^g."[I:staff -1] [Bd][I:staff +1] x x[I:staff -1] [Bd][I:staff +1] x[I:staff -1] [Bd] | %22
w: |
[I:staff +1] x[I:staff -1] [Ac][I:staff +1] x[I:staff -1] [Ac][I:staff +1] x[I:staff -1] [Ac][I:staff +1] x[I:staff -1] [Ac] | %23
w: |
[I:staff +1] x!p![I:staff -1] [Bd][I:staff +1] x[I:staff -1] [Bd][I:staff +1] x[I:staff -1] [Bd][I:staff +1] x[I:staff -1] [Bd] | %24
w: |
[I:staff +1] x[I:staff -1] [Ac][I:staff +1] x[I:staff -1] [Ac][I:staff +1] x[I:staff -1] [Ac][I:staff +1] x[I:staff -1] [Ac] | %25
w: |
[I:staff +1] x!f![I:staff -1] [Bd][I:staff +1] x[I:staff -1] [Bd][I:staff +1] [G,G]4 | %26
w: |
 C,2 D,2 E,2 C,2 | D,2 E,2 ^F,2 D,2 | G,4 D,4 | G,,A,,B,,C, D,E,^F,G, :| %30
w: ||||
V:3
 x8 |: x8 | x8 | x8 | x8 | x8 | x8 | x8 | x8 | x8 | x8 | x8 | x8 | x8 | x8 | x4[K:treble] x4 | x8 | %17
 x8 | E2 D2 x4 |[K:bass] x8 | ^F,6 D,2 | x8 | x8 | x8 | x8 | x8 | x8 | x8 | z2 C,2 z2 D,,2 | x8 :| %30
V:4
 x8 |: x8 | x8 | x8 | x8 | x8 | x8 | x8 | x8 | x8 | x8 | x8 | x8 | x8 | x8 | x8 | x8 | x8 | x8 | %19
 c4 B4 | A4 z4 | x8 | x8 | x8 | x8 | x8 | x8 | x8 | B,3 B, A,DC^F | x8 :| %30

